src/lib/packages/icons/src/assets/line/message-code.svg

<svg width="24" height="24" viewBox="0 0 24 24" fill="none" xmlns="http://www.w3.org/2000/svg">
<path d="M3 21.75C2.903 21.75 2.80589 21.731 2.71289 21.693C2.43289 21.577 2.25 21.303 2.25 21V6C2.25 3.582 3.582 2.25 6 2.25H18C20.418 2.25 21.75 3.582 21.75 6V15C21.75 17.418 20.418 18.75 18 18.75H6.31104L3.53101 21.53C3.38701 21.674 3.195 21.75 3 21.75ZM6 3.75C4.423 3.75 3.75 4.423 3.75 6V19.189L5.46997 17.469C5.61097 17.328 5.801 17.249 6 17.249H18C19.577 17.249 20.25 16.576 20.25 14.999V5.99902C20.25 4.42202 19.577 3.74902 18 3.74902H6V3.75ZM11.03 13.03C11.323 12.737 11.323 12.262 11.03 11.969L9.56006 10.499L11.03 9.02905C11.323 8.73605 11.323 8.26102 11.03 7.96802C10.737 7.67502 10.262 7.67502 9.96899 7.96802L7.96899 9.96802C7.67599 10.261 7.67599 10.7361 7.96899 11.0291L9.96899 13.0291C10.115 13.1751 10.307 13.249 10.499 13.249C10.691 13.249 10.884 13.177 11.03 13.03ZM14.03 13.03L16.03 11.03C16.323 10.737 16.323 10.262 16.03 9.96899L14.03 7.96899C13.737 7.67599 13.262 7.67599 12.969 7.96899C12.676 8.26199 12.676 8.73703 12.969 9.03003L14.439 10.5L12.969 11.97C12.676 12.263 12.676 12.738 12.969 13.031C13.115 13.177 13.307 13.251 13.499 13.251C13.691 13.251 13.884 13.177 14.03 13.03Z" fill="currentColor"/>
</svg>

<svg xmlns="http://www.w3.org/2000/svg" width="24" height="24" fill="none"><path fill="currentColor" d="M3 21.75a.75.75 0 0 1-.75-.75V6c0-2.418 1.332-3.75 3.75-3.75h12c2.418 0 3.75 1.332 3.75 3.75v9c0 2.418-1.332 3.75-3.75 3.75H6.311l-2.78 2.78a.75.75 0 0 1-.531.22Zm3-18c-1.577 0-2.25.673-2.25 2.25v13.189l1.72-1.72a.749.749 0 0 1 .53-.22h12c1.577 0 2.25-.673 2.25-2.25v-9c0-1.577-.673-2.25-2.25-2.25H6v.001Zm5.03 9.28a.75.75 0 0 0 0-1.061l-1.47-1.47 1.47-1.47a.75.75 0 1 0-1.061-1.061l-2 2a.75.75 0 0 0 0 1.061l2 2a.748.748 0 0 0 1.061.001Zm3 0 2-2a.75.75 0 0 0 0-1.061l-2-2a.75.75 0 1 0-1.061 1.061l1.47 1.47-1.47 1.47a.75.75 0 1 0 1.061 1.06Z"/></svg>
